X:4
T:His Majesty's Hornpipe (Craig 4)
M:C|
L:1/8
B:Empire Violin Collection of Hornpipes
H:Published by Thomas Craig
H:Music Publisher, &c.
H:George Street, Aberdeen, N.B.
Z:Peter Dunk December 2011
R:hornpipe
Q:1/2=70
K:A
E(F/G/) | A2 ED CA,CE | FDBA GEFG | Acec dcBA | GABc BdcB |!
A2 ED CA,CE | FDBA GEFG | Aagf edcB | A2A2A2 :|!
|: (ef/g/) | aefc fdcB | ecBA AGFE | dfdB cecA | GABc B3 E |!
FDFA dcBA | GEGB edcB | Aagf edcB | A2A2A2 :|

